!!!OTL: ICH WAR EIN RECHTER FASELHANS
!!!ARE: Europa, Mitteleuropa, Deutschland
!!!SCT: B0702
!!!YEM: Copyright 1995, estate of Helmut Schaffrath.
**kern
*ICvox
*Ivox
*M2/4
*k[b-e-]
*B-:
{16d
16e-
=1
8f
8f
8f
16en
16f
=2
8b-
8b-
8b-}
{16cc
16b-
=3
8a
8cc
8ff
8ee-
=4
4dd
8r}
{8dd
=5
8dd
8f#
8f#
8f#
=6
8g
8a
8b-}
{8bn
=7
8cc
8en
8en
8en
=8
4f
8r}
{8f
=9
8ee-
8cc
8dd
8b-
=10
8a
8b-
8cc}
{8f
=11
8b-
8dd
8ee-
8dd
=12
4cc
8r}
{8ff
=13
8dd
8dd
8b-
8b-
=14
8cc
8dd
8ee-}
{8cc
=15
8dd
8cc
8b-
8a
=16
4b-
8r}
==
!!!AGN: Scherz - Lied
!!!ONB: ESAC (Essen Associative Code) Database: BOEHME
!!!AMT: simple duple
!!!AIN: vox
!!!EED: Helmut Schaffrath
!!!EEV: 1.0
*-
